!!!COM: Schubert, Franz
!!!CNT: Deutscher
!!!TXO: Deutsch
!!!OTL: "Gute Nacht"
!!!OPR: Winterreise
!!!LYR: Mu2ller, Wilhelm
!!!OPS: Opus 89
!!!ONM: No. 1
!!!ODT: 1827/
!!NB: Vocal melody only encoded.
**kern	**silbe
*clefG2	*
*k[b-]	*
*M2/4	*
*MM[massig]	*
=7	=7
4r	.
8r	.
{8ff	{Fremd
=8	=8
8ee	bin
8dd	ich
8a	ein-
8f	-ge-
=9	=9
8.e	-zo-
16f	|
8e	-gen,
8dd	fremd
=10	=10
8.a	zieh'
16f	ich
16a	wie-
16f	|
16e	-der
16f	|
=11	=11
4d}	aus.}
8r	.
{8ff	{Der
=12	=12
8ee	Mai
8dd	war
8a	mir
8f	ge-
=13	=13
8.e	-wo-
16f	|
8e	-gen
8dd	mit
=14	=14
8.a	man-
16f	-chem
16a	Blu-
16f	|
16e	-men-
16f	|
=15	=15
4d}	-strauss.}
8r	.
{8c	{Das
=16	=16
8f	Ma2d-
8f	-chen
8f	sprach
8f	von
=17	=17
8.g	Lie-
16a	|
8g	-be,
8a	die
=18	=18
16cc	Mut-
16b-	|
8a	-ter
8g	gar
16a	von
16b-	|
=19	=19
4a}	Eh',}
8r	.
{8f	{das
=20	=20
8b-	Ma2d-
8b-	-chen
8b-	sprach
8b-	von
=21	=21
8.cc	Lie-
16dd	|
8cc	-be,
8dd	die
=22	=22
16ff	Mut-
16ee-	|
8dd	-ter
8.cc	gar
16dd	von
=23	=23
4b-}	Eh',}
4r	.
=25	=25
4r	.
8r	.
{8dd	{nun
=26	=26
8.b-	ist
16g	die
8e	Welt
8dd	so
=27	=27
8.a	tru2-
16f	|
8d	-be,
16f	der
16g	|
=28	=28
8a	Weg
8a	ge-
8a	-hu2llt
16bn	in
16cc#	|
=29	=29
4dd}	Schnee,}
8r	.
{8dd	{nun
=30	=30
8.b-	ist
16g	die
8e	Welt
8dd	so
=31	=31
8.a	tru2-
16f	|
8d	-be,
16f	der
16g	|
=32	=32
8a	Weg
8a	ge-
8a	-hu2llt
8a	in
=33	=33
4d}	Schnee.}
4r	.
=39	=39
4r	.
8r	.
{8ff	{Was
=40	=40
8ee	soll
8dd	ich
8a	la2n-
8f	-ger
=41	=41
8.e	wei-
16g	|
8b-	-len,
8dd	dass
=42	=42
8a	man
16f	mich
16g	|
8a	trieb'
16bn	hin-
16cc#	|
=43	=43
4dd}	-aus?}
8r	.
{8ff	{Lass
=44	=44
8ee	ir-
8dd	-re
8a	Hun-
8f	-de
=45	=45
8.e	heu-
16g	|
8b-	-len
8dd	vor
=46	=46
8a	ih-
16f	-res
16g	|
8a	Her-
16bn	-ren
16cc#	|
=47	=47
4dd}	Haus!}
8r	.
{8e	{Die
=48	=48
8f	Lie-
8f	-be
8f	liebt
8f	das
=49	=49
8.g	Wan-
16a	|
8g	-dern,
8a	Gott
=50	=50
16cc	hat
16b-	|
8a	sie
8g	so
16a	ge-
16b-	|
=51	=51
4a}	-macht,}
8r	.
{8f	{von
=52	=52
8b-	Ei-
8b-	-nem
8b-	zu
8b-	dem
=53	=53
8.cc	An-
16dd	|
8cc	-dern,
8dd	Gott
=54	=54
16ff	hat
16ee-	|
8dd	sie
8.cc	so
16dd	ge-
=55	=55
4b-}	-macht.}
4r	.
=57	=57
4r	.
8r	.
{8dd	{Die
=58	=58
8.b-	Lie-
16g	-be
8e	liebt
8dd	das
=59	=59
8.a	Wan-
16f	|
8d	-dern,
8a	fein
=60	=60
8a	Lieb-
8dd	-chen,
8ee	gu-
8cc#	-te
=61	=61
4dd}	Nacht!}
8r	.
{8dd	{von
=62	=62
8.b-	Ei-
16g	-nem
8e	zu
8dd	dem
=63	=63
8.a	An-
16f	|
8d	-dern,
8a	fein
=64	=64
8a	Lieb-
8ff	-chen,
8ee	gu-
8cc#	-te
=65	=65
4dd}	Nacht!}
4r	.
=71	=71
*k[f#c#]	*
4r	.
8r	.
{8ff#	{Will
=72	=72
8ee	dich
8dd	im
8a	Traum
8f#	nicht
=73	=73
8.e	sto2-
16f#	|
8e	-ren,
8b	wa2r'
=74	=74
8.dd	Schad'
16f#	um
16a	dei-
16f#	|
16e	-ne
16f#	|
=75	=75
4d}	Ruh,}
8r	.
{8ff#	{sollst
=76	=76
8ee	mei-
8dd	-nen
8a	Tritt
8f#	nicht
=77	=77
8.e	ho2-
16f#	|
8e	-ren,
8b	sacht,
=78	=78
8.dd	sacht
16f#	die
16a	Thu2-
16f#	|
16e	-re
16f#	|
=79	=79
4d}	zu!}
8r	.
{8d	{Schreib'
=80	=80
8g	im
8g	Vor-
8g	-u2-
16f#	-ber-
16g	|
=81	=81
8.a	-ge-
16b	|
8a	-hen
8b	an's
=82	=82
16dd	Thor
16ccn	|
8b	dir:
8a	gu-
16b	-te
16cc#	|
=83	=83
4b}	Nacht,}
8r	.
{8a	{da-
=84	=84
8dd	-mit
8dd	du
8dd	mo2-
16cc#	-gest
16dd	|
=85	=85
8.ee	se-
16ff#	|
8ee	-hen,
8ff#	an
=86	=86
8cc#	dich
8dd	hab'
8.a	ich
16g	ge-
=87	=87
4f#}	-dacht.}
4r	.
=89	=89
4r	.
8r	.
{8dd	{Schreib'
=90	=90
8.b	im
16g#	Vor-
8e	-u2-
8dd	-ber-
=91	=91
8.a	-ge-
16f#	|
8d	-hen
8a	an's
=92	=92
8a	Thor
8dd	dir:
8.ee	gu-
16cc#	-te
=93	=93
4dd}	Nacht,}
8r	.
{8dd	{da
=94	=94
8.b	mit
16g#	du
8e	mo2-
8dd	-gest
=95	=95
8.a	se-
16f#	|
8d	-hen,
8a	an
=96	=96
8a	dich
8ff#	hab'
8ee	ich
8cc#	ge-
=97	=97
4dd}	-dacht,}
8r	.
{8a	{an
=98	=98
8a	dich
8ffn	hab'
8ee	ich
8cc#	ge-
=99	=99
*k[b-]	*
4dd}	-dacht.}
4r	.
*-	*-
